packages/sources/icons/src/vitamix/timer-line.svg

<svg width="16" height="16" viewBox="0 0 16 16" fill="none" xmlns="http://www.w3.org/2000/svg">
<path fill-rule="evenodd" clip-rule="evenodd" d="M10.6664 1.33333H5.33308V2.66666H10.6664V1.33333ZM12.7137 3.67662L11.7451 4.64529C9.25743 2.65791 5.65061 2.95975 3.52791 5.33297C1.40521 7.70618 1.50593 11.3242 3.75737 13.5756C6.00882 15.8271 9.62684 15.9278 12 13.8051C14.3733 11.6824 14.6751 8.07559 12.6877 5.58796L13.6564 4.61929L12.7137 3.67662ZM12.0412 11.6667C11.2076 13.1105 9.66699 14 7.99975 14C5.42242 14 3.33308 11.9107 3.33308 9.33333C3.33308 6.756 5.42242 4.66666 7.99975 4.66666C9.66699 4.66666 11.2076 5.55612 12.0412 6.99999C12.8748 8.44387 12.8748 10.2228 12.0412 11.6667ZM8.66642 5.99999V10H7.33308V5.99999H8.66642Z" fill="#001018"/>
</svg>

<svg width="16" height="16" fill="none" xmlns="http://www.w3.org/2000/svg"><path fill-rule="evenodd" clip-rule="evenodd" d="M10.666 1.333H5.333v1.334h5.333V1.333zm2.048 2.344-.969.968a6 6 0 1 0 .943.943l.968-.969-.942-.942zm-.673 7.99A4.667 4.667 0 1 1 3.958 7a4.667 4.667 0 0 1 8.083 4.667zM8.666 6v4H7.333V6h1.333z" fill="#001018"/></svg>
